icons/american-flag.svg

<?xml version="1.0" encoding="UTF-8"?><svg xmlns="http://www.w3.org/2000/svg" viewBox="0 0 50 50"><g id="uuid-42336d98-a45e-4bd2-9b5c-f8881bdf27d2"><g><path d="M48.49,10.71H.76c-.28,0-.5,.22-.5,.5v27.59c0,.28,.22,.5,.5,.5H48.49c.28,0,.5-.22,.5-.5V11.21c0-.28-.22-.5-.5-.5Zm-23.35,1h22.85v3.6H25.14v-3.6Zm22.85,8.2H25.14v-3.6h22.85v3.6Zm0,4.6H25.14v-3.6h22.85v3.6ZM1.27,11.71H24.14v12.79H1.27V11.71Zm-.02,13.79H47.99v3.6H1.26v-3.6Zm46.74,8.2H1.26v-3.6H47.99v3.6Zm0,4.6H1.26v-3.6H47.99v3.6Z"/><polygon points="3.82 15.17 4.59 14.76 5.36 15.17 5.21 14.31 5.84 13.7 4.98 13.58 4.59 12.8 4.21 13.58 3.35 13.71 3.97 14.31 3.82 15.17"/><polygon points="7.94 15.17 8.71 14.76 9.48 15.17 9.34 14.31 9.96 13.7 9.1 13.58 8.71 12.8 8.33 13.58 7.47 13.71 8.09 14.31 7.94 15.17"/><polygon points="12.06 15.17 12.83 14.76 13.6 15.17 13.46 14.31 14.08 13.7 13.22 13.58 12.83 12.8 12.45 13.58 11.59 13.71 12.21 14.31 12.06 15.17"/><polygon points="16.18 15.17 16.95 14.76 17.72 15.17 17.58 14.31 18.2 13.7 17.34 13.58 16.95 12.8 16.57 13.58 15.71 13.71 16.33 14.31 16.18 15.17"/><polygon points="21.07 12.8 20.69 13.58 19.83 13.71 20.45 14.31 20.31 15.17 21.07 14.76 21.84 15.17 21.7 14.31 22.32 13.7 21.46 13.58 21.07 12.8"/><polygon points="4.98 21.82 4.59 21.04 4.21 21.82 3.35 21.94 3.97 22.55 3.82 23.41 4.59 23 5.36 23.4 5.21 22.55 5.84 21.94 4.98 21.82"/><polygon points="9.1 21.82 8.71 21.04 8.33 21.82 7.47 21.94 8.09 22.55 7.94 23.41 8.71 23 9.48 23.4 9.34 22.55 9.96 21.94 9.1 21.82"/><polygon points="13.22 21.82 12.83 21.04 12.45 21.82 11.59 21.94 12.21 22.55 12.06 23.41 12.83 23 13.6 23.4 13.46 22.55 14.08 21.94 13.22 21.82"/><polygon points="17.34 21.82 16.95 21.04 16.57 21.82 15.71 21.94 16.33 22.55 16.18 23.41 16.95 23 17.72 23.4 17.58 22.55 18.2 21.94 17.34 21.82"/><polygon points="21.46 21.82 21.07 21.04 20.69 21.82 19.83 21.94 20.45 22.55 20.31 23.41 21.07 23 21.84 23.4 21.7 22.55 22.32 21.94 21.46 21.82"/><polygon points="7.86 17.82 7 17.7 6.61 16.92 6.23 17.7 5.37 17.82 5.99 18.43 5.85 19.29 6.61 18.88 7.38 19.29 7.24 18.43 7.86 17.82"/><polygon points="11.98 17.82 11.12 17.7 10.73 16.92 10.35 17.7 9.49 17.82 10.11 18.43 9.97 19.29 10.73 18.88 11.5 19.29 11.36 18.43 11.98 17.82"/><polygon points="16.1 17.82 15.24 17.7 14.85 16.92 14.47 17.7 13.61 17.82 14.23 18.43 14.09 19.29 14.85 18.88 15.62 19.29 15.48 18.43 16.1 17.82"/><polygon points="20.22 17.82 19.36 17.7 18.97 16.92 18.59 17.7 17.73 17.82 18.35 18.43 18.21 19.29 18.98 18.88 19.75 19.29 19.6 18.43 20.22 17.82"/></g></g><g id="uuid-e3801b32-d95c-414c-913b-50d2cae3cca8"><text transform="translate(-.1 54.79)" font-family="Roboto-Regular, Roboto" font-size="6"><tspan x="0" y="0">american-flag</tspan></text></g></svg>

<svg xmlns="http://www.w3.org/2000/svg" viewBox="0 0 50 50"><g id="aa380ef8-f6aa-4631-ac5a-99b043427eef" data-name="ICONS"><path d="M48.49,10.71H.76a.5.5,0,0,0-.5.5V38.79a.5.5,0,0,0,.5.5H48.49a.5.5,0,0,0,.5-.5V11.21A.5.5,0,0,0,48.49,10.71Zm-23.35,1H48V15.3H25.14ZM48,19.9H25.14V16.3H48Zm0,4.6H25.14V20.9H48ZM1.27,11.71H24.14V24.5H1.27Zm0,13.79H48v3.6H1.26ZM48,33.7H1.26V30.1H48Zm0,4.59H1.26V34.7H48Z"/><polygon points="3.82 15.17 4.59 14.76 5.36 15.17 5.21 14.31 5.84 13.7 4.98 13.58 4.59 12.8 4.21 13.58 3.35 13.71 3.97 14.31 3.82 15.17"/><polygon points="7.94 15.17 8.71 14.76 9.48 15.17 9.34 14.31 9.96 13.7 9.1 13.58 8.71 12.8 8.33 13.58 7.47 13.71 8.09 14.31 7.94 15.17"/><polygon points="12.06 15.17 12.83 14.76 13.6 15.17 13.46 14.31 14.08 13.7 13.22 13.58 12.83 12.8 12.45 13.58 11.59 13.71 12.21 14.31 12.06 15.17"/><polygon points="16.18 15.17 16.95 14.76 17.72 15.17 17.58 14.31 18.2 13.7 17.34 13.58 16.95 12.8 16.57 13.58 15.71 13.71 16.33 14.31 16.18 15.17"/><polygon points="21.07 12.8 20.69 13.58 19.83 13.71 20.45 14.31 20.3 15.17 21.07 14.76 21.84 15.17 21.7 14.31 22.32 13.7 21.46 13.58 21.07 12.8"/><polygon points="4.98 21.82 4.59 21.04 4.21 21.82 3.35 21.94 3.97 22.55 3.82 23.41 4.59 23 5.36 23.41 5.21 22.55 5.84 21.94 4.98 21.82"/><polygon points="9.1 21.82 8.71 21.04 8.33 21.82 7.47 21.94 8.09 22.55 7.94 23.41 8.71 23 9.48 23.41 9.34 22.55 9.96 21.94 9.1 21.82"/><polygon points="13.22 21.82 12.83 21.04 12.45 21.82 11.59 21.94 12.21 22.55 12.06 23.41 12.83 23 13.6 23.41 13.46 22.55 14.08 21.94 13.22 21.82"/><polygon points="17.34 21.82 16.95 21.04 16.57 21.82 15.71 21.94 16.33 22.55 16.18 23.41 16.95 23 17.72 23.41 17.58 22.55 18.2 21.94 17.34 21.82"/><polygon points="21.46 21.82 21.07 21.04 20.69 21.82 19.83 21.94 20.45 22.55 20.3 23.41 21.07 23 21.84 23.41 21.7 22.55 22.32 21.94 21.46 21.82"/><polygon points="7.86 17.82 7 17.7 6.61 16.92 6.23 17.7 5.37 17.82 5.99 18.43 5.84 19.29 6.61 18.88 7.38 19.29 7.24 18.43 7.86 17.82"/><polygon points="11.98 17.82 11.12 17.7 10.73 16.92 10.35 17.7 9.49 17.82 10.11 18.43 9.97 19.29 10.73 18.88 11.51 19.29 11.36 18.43 11.98 17.82"/><polygon points="16.1 17.82 15.24 17.7 14.85 16.92 14.47 17.7 13.61 17.82 14.23 18.43 14.09 19.29 14.86 18.88 15.63 19.29 15.48 18.43 16.1 17.82"/><polygon points="20.22 17.82 19.36 17.7 18.97 16.92 18.59 17.7 17.73 17.82 18.35 18.43 18.21 19.29 18.98 18.88 19.75 19.29 19.6 18.43 20.22 17.82"/></g><g id="b48807ad-55b4-4aaf-8598-30a3f35c46cc" data-name="LABELS"><text transform="translate(-0.1 54.79)" font-size="6" font-family="Roboto-Regular, Roboto">american-flag</text></g></svg>
